X:35
T:RVW2/2/35 The Spotted Cow
C:Mr. Harris, Little Bursted, Essex, 16 April 1904
L:1/8
Q:1/4=99
M:6/8
I:linebreak $
K:G
"^(Editorial suggestion)  " D | G2 G B2 G | F2 G A2 D | G2 G B2 G | (FA) z z2 D/D/ |$ G2 G B2 G | 
w: No|lon- ger weep no|lon- ger mourn your|cow's not lost my|dear * For I|saw her down in|
E2 E A2 c | B2 G/G/ A2 F | G3- G2 |] 
w: yon- der grove come|love and I'll show you|where. *|



